X: 40371
T: Tom Fitzmorris'
R: reel
M: 4/4
K: Amajor
AE|:F2AF E2AB|ceAc BFAF|1 EFAB cefc|ecBd cBAE:|2 EFAB c2fc|ecBc A2|
AB|:c2ec d2fd|c2ec BAFA|1 c2ec d2fd|ecBA FAAB:|2 ABce a2fa|ecBc A2||

